public/img/header/liga-bank-title.svg

<svg width="89" height="13" viewBox="0 0 89 13" fill="none" xmlns="http://www.w3.org/2000/svg">
<path d="M10.48 12H8.064V2.592H5.264C5.2 3.08267 5.13067 3.616 5.056 4.192C4.992 4.768 4.91733 5.35467 4.832 5.952C4.75733 6.53867 4.67733 7.09867 4.592 7.632C4.50667 8.15467 4.42133 8.61867 4.336 9.024C4.19733 9.68533 4.01067 10.2507 3.776 10.72C3.552 11.1893 3.23733 11.5467 2.832 11.792C2.43733 12.0373 1.92 12.16 1.28 12.16C0.864 12.16 0.48 12.1013 0.128 11.984V10C0.266667 10.0427 0.4 10.08 0.528 10.112C0.666667 10.144 0.816 10.16 0.976 10.16C1.28533 10.16 1.52 10 1.68 9.68C1.85067 9.34933 2.02133 8.736 2.192 7.84C2.256 7.49867 2.34667 6.96533 2.464 6.24C2.58133 5.51467 2.70933 4.66667 2.848 3.696C2.99733 2.71467 3.136 1.67467 3.264 0.575999H10.48V12ZM13.3619 0.575999H15.5379V6.096C15.5379 6.36267 15.5325 6.66133 15.5219 6.992C15.5112 7.32267 15.5005 7.648 15.4899 7.968C15.4792 8.27733 15.4685 8.54933 15.4579 8.784C15.4472 9.008 15.4365 9.16267 15.4259 9.248H15.4739L20.7539 0.575999H23.6499V12H21.4899V6.512C21.4899 6.224 21.4952 5.90933 21.5059 5.568C21.5165 5.216 21.5272 4.88 21.5379 4.56C21.5592 4.24 21.5752 3.96267 21.5859 3.728C21.6072 3.48267 21.6232 3.32267 21.6339 3.248H21.5699L16.2739 12H13.3619V0.575999ZM33.7498 0.575999V2.576H28.9498V12H26.5338V0.575999H33.7498ZM41.3695 12L40.5375 9.28H36.3775L35.5455 12H32.9375L36.9695 0.528H39.9295L43.9775 12H41.3695ZM39.9615 7.248L39.1295 4.592C39.0762 4.41067 39.0068 4.18133 38.9215 3.904C38.8362 3.62667 38.7508 3.344 38.6655 3.056C38.5802 2.768 38.5108 2.51733 38.4575 2.304C38.4042 2.51733 38.3295 2.784 38.2335 3.104C38.1482 3.41333 38.0628 3.712 37.9775 4C37.9028 4.27733 37.8442 4.47467 37.8015 4.592L36.9855 7.248H39.9615ZM50.0025 12V0.575999H57.2185V2.576H52.4185V4.96H53.3785C54.4558 4.96 55.3358 5.10933 56.0185 5.408C56.7118 5.70667 57.2238 6.11733 57.5545 6.64C57.8852 7.16267 58.0505 7.76 58.0505 8.432C58.0505 9.56267 57.6718 10.4427 56.9145 11.072C56.1678 11.6907 54.9732 12 53.3305 12H50.0025ZM52.4185 10.016H53.2345C53.9705 10.016 54.5465 9.89867 54.9625 9.664C55.3892 9.42933 55.6025 9.01867 55.6025 8.432C55.6025 7.824 55.3732 7.424 54.9145 7.232C54.4558 7.04 53.8318 6.944 53.0425 6.944H52.4185V10.016ZM63.5976 3.088C64.771 3.088 65.667 3.344 66.2856 3.856C66.915 4.35733 67.2296 5.13067 67.2296 6.176V12H65.5656L65.1016 10.816H65.0376C64.6643 11.2853 64.2696 11.6267 63.8536 11.84C63.4376 12.0533 62.867 12.16 62.1416 12.16C61.363 12.16 60.7176 11.936 60.2056 11.488C59.6936 11.0293 59.4376 10.3307 59.4376 9.392C59.4376 8.464 59.763 7.78133 60.4136 7.344C61.0643 6.896 62.0403 6.65067 63.3416 6.608L64.8616 6.56V6.176C64.8616 5.71733 64.739 5.38133 64.4936 5.168C64.259 4.95467 63.9283 4.848 63.5016 4.848C63.075 4.848 62.659 4.912 62.2536 5.04C61.8483 5.15733 61.443 5.30667 61.0376 5.488L60.2536 3.872C60.723 3.62667 61.2403 3.43467 61.8056 3.296C62.3816 3.15733 62.979 3.088 63.5976 3.088ZM64.8616 7.952L63.9336 7.984C63.1656 8.00533 62.6323 8.144 62.3336 8.4C62.035 8.656 61.8856 8.992 61.8856 9.408C61.8856 9.77067 61.9923 10.032 62.2056 10.192C62.419 10.3413 62.6963 10.416 63.0376 10.416C63.5496 10.416 63.9816 10.2667 64.3336 9.968C64.6856 9.65867 64.8616 9.22667 64.8616 8.672V7.952ZM72.0539 3.264V6.624H75.3819V3.264H77.7659V12H75.3819V8.4H72.0539V12H69.6699V3.264H72.0539ZM85.9916 3.264H88.6156L85.1596 7.456L88.9196 12H86.2156L82.6476 7.568V12H80.2636V3.264H82.6476V7.504L85.9916 3.264Z" fill="#1F1E25"/>
</svg>

<svg width="89" height="13" fill="none" xmlns="http://www.w3.org/2000/svg"><path d="M10.48 12H8.064V2.592h-2.8l-.208 1.6a56.818 56.818 0 01-.224 1.76 53.026 53.026 0 01-.24 1.68c-.085.523-.17.987-.256 1.392-.139.661-.325 1.227-.56 1.696-.224.47-.539.827-.944 1.072-.395.245-.912.368-1.552.368-.416 0-.8-.059-1.152-.176V10c.139.043.272.08.4.112.139.032.288.048.448.048.31 0 .544-.16.704-.48.17-.33.341-.944.512-1.84.064-.341.155-.875.272-1.6.117-.725.245-1.573.384-2.544.15-.981.288-2.021.416-3.12h7.216V12zM13.362.576h2.176v5.52c0 .267-.005.565-.016.896l-.032.976a78.3 78.3 0 01-.032.816 7.26 7.26 0 01-.032.464h.048l5.28-8.672h2.896V12h-2.16V6.512c0-.288.005-.603.016-.944.01-.352.021-.688.032-1.008.021-.32.037-.597.048-.832.021-.245.037-.405.048-.48h-.064L16.274 12h-2.912V.576zm20.388 0v2h-4.8V12h-2.416V.576h7.216zM41.37 12l-.832-2.72h-4.16L35.544 12h-2.608L36.97.528h2.96L43.977 12H41.37zm-1.408-4.752l-.833-2.656c-.053-.181-.122-.41-.207-.688a84.81 84.81 0 01-.256-.848 18.446 18.446 0 01-.208-.752c-.054.213-.128.48-.224.8-.086.31-.171.608-.257.896a8.192 8.192 0 01-.175.592l-.816 2.656h2.976zM50.002 12V.576h7.216v2h-4.8V4.96h.96c1.078 0 1.958.15 2.64.448.694.299 1.206.71 1.536 1.232.331.523.496 1.12.496 1.792 0 1.13-.378 2.01-1.136 2.64-.746.619-1.94.928-3.584.928h-3.328zm2.416-1.984h.816c.736 0 1.313-.117 1.728-.352.427-.235.64-.645.64-1.232 0-.608-.229-1.008-.688-1.2-.458-.192-1.082-.288-1.872-.288h-.623v3.072zm11.18-6.928c1.173 0 2.069.256 2.688.768.629.501.944 1.275.944 2.32V12h-1.664l-.464-1.184h-.064c-.374.47-.768.81-1.184 1.024-.416.213-.987.32-1.712.32-.779 0-1.424-.224-1.936-.672-.512-.459-.768-1.157-.768-2.096 0-.928.325-1.61.976-2.048.65-.448 1.626-.693 2.928-.736l1.52-.048v-.384c0-.459-.123-.795-.368-1.008-.235-.213-.566-.32-.992-.32a4.12 4.12 0 00-1.248.192 9.278 9.278 0 00-1.216.448l-.784-1.616a6.87 6.87 0 011.552-.576 7.63 7.63 0 011.792-.208zm1.264 4.864l-.928.032c-.768.021-1.302.16-1.6.416-.299.256-.448.592-.448 1.008 0 .363.106.624.32.784.213.15.49.224.832.224.512 0 .944-.15 1.296-.448.352-.31.528-.741.528-1.296v-.72zm7.192-4.688v3.36h3.328v-3.36h2.384V12h-2.384V8.4h-3.328V12H69.67V3.264h2.384zm13.938 0h2.624L85.16 7.456 88.92 12h-2.704l-3.568-4.432V12h-2.384V3.264h2.384v4.24l3.344-4.24z" fill="#1F1E25"/></svg>
